logos/tv.cbsdrama.svg

<?xml version="1.0" encoding="UTF-8" standalone="no"?>
<!-- Created with Inkscape (http://www.inkscape.org/) -->

<svg
   xmlns:dc="http://purl.org/dc/elements/1.1/"
   xmlns:cc="http://creativecommons.org/ns#"
   xmlns:rdf="http://www.w3.org/1999/02/22-rdf-syntax-ns#"
   xmlns:svg="http://www.w3.org/2000/svg"
   xmlns="http://www.w3.org/2000/svg"
   xmlns:inkscape="http://www.inkscape.org/namespaces/inkscape"
   version="1.0"
   width="843"
   height="119"
   id="svg2">
  <metadata
     id="metadata23">
    <rdf:RDF>
      <cc:Work
         rdf:about="">
        <dc:format>image/svg+xml</dc:format>
        <dc:type
           rdf:resource="http://purl.org/dc/dcmitype/StillImage" />
      </cc:Work>
    </rdf:RDF>
  </metadata>
  <defs
     id="defs21" />
  <g
     transform="translate(411.68655,-924.62412)"
     id="layer1">
    <path
       d="m 330.802,444.635 c -1.596,-0.009 -2.896,-1.06 -3.585,-2.324 0.697,-1.257 2.002,-2.276 3.585,-2.276 1.615,0 2.906,1.013 3.587,2.276 -0.681,1.265 -1.96,2.331 -3.587,2.324 m 0,-6.207 c -2.148,0 -3.891,1.753 -3.891,3.911 0,2.157 1.742,3.906 3.891,3.906 2.15,0 3.893,-1.749 3.893,-3.906 0,-2.158 -1.742,-3.911 -3.893,-3.911"
       inkscape:connector-curvature="0"
       transform="matrix(11.993512,0,0,11.993512,-4099.6075,-4310.9397)"
       id="path1149"
       style="fill:#a80055" />
    <path
       d="m 330.802,444.635 c -1.596,-0.009 -2.896,-1.06 -3.585,-2.324 0.697,-1.257 2.002,-2.276 3.585,-2.276 1.615,0 2.906,1.013 3.587,2.276 -0.681,1.265 -1.96,2.331 -3.587,2.324 m 0,-6.207 c -2.148,0 -3.891,1.753 -3.891,3.911 0,2.157 1.742,3.906 3.891,3.906 2.15,0 3.893,-1.749 3.893,-3.906 0,-2.158 -1.742,-3.911 -3.893,-3.911"
       inkscape:connector-curvature="0"
       transform="matrix(11.993512,0,0,11.993512,-4099.6075,-4310.9397)"
       id="path1151"
       style="fill:#a80055" />
    <path
       d="m 330.802,444.411 c 1.141,0 2.063,-0.93 2.063,-2.072 0,-1.145 -0.923,-2.072 -2.063,-2.072 -1.136,0 -2.063,0.928 -2.063,2.072 0.001,1.142 0.928,2.072 2.063,2.072"
       inkscape:connector-curvature="0"
       transform="matrix(11.993512,0,0,11.993512,-4099.6075,-4310.9397)"
       id="path1153"
       style="fill:#a80055" />
    <path
       d="m 330.802,444.411 c 1.141,0 2.063,-0.93 2.063,-2.072 0,-1.145 -0.923,-2.072 -2.063,-2.072 -1.136,0 -2.063,0.928 -2.063,2.072 0.001,1.142 0.928,2.072 2.063,2.072"
       inkscape:connector-curvature="0"
       transform="matrix(11.993512,0,0,11.993512,-4099.6075,-4310.9397)"
       id="path1155"
       style="fill:#a80055" />
    <path
       d="m 314.053,438.446 3.542,0 c 1.501,0 2.55,0.926 2.55,1.872 0,0.709 -0.268,1.377 -1.752,1.703 0.572,0.076 2.131,0.495 2.131,1.986 0,1.493 -1.637,2.218 -2.759,2.218 l -3.712,0 0,-0.075 3.675,0 c 0.875,0 1.429,-0.363 1.429,-2.028 0,-1.663 -0.608,-2.044 -1.372,-2.063 l -1.142,0 0,-0.077 1.208,0 c 0.496,0 1.02,-0.075 1.02,-1.683 0,-1.604 -0.63,-1.776 -1.297,-1.776 l -0.931,0 0,7.628 -1.41,0 0,-7.628 -1.18,0 0,-0.077 0,0 z"
       inkscape:connector-curvature="0"
       transform="matrix(11.993512,0,0,11.993512,-4099.6075,-4310.9397)"
       id="path1157"
       style="fill:#a80055" />
    <path
       d="m 314.053,438.446 3.542,0 c 1.501,0 2.55,0.926 2.55,1.872 0,0.709 -0.268,1.377 -1.752,1.703 0.572,0.076 2.131,0.495 2.131,1.986 0,1.493 -1.637,2.218 -2.759,2.218 l -3.712,0 0,-0.075 3.675,0 c 0.875,0 1.429,-0.363 1.429,-2.028 0,-1.663 -0.608,-2.044 -1.372,-2.063 l -1.142,0 0,-0.077 1.208,0 c 0.496,0 1.02,-0.075 1.02,-1.683 0,-1.604 -0.63,-1.776 -1.297,-1.776 l -0.931,0 0,7.628 -1.41,0 0,-7.628 -1.18,0 0,-0.077 0,0 z"
       inkscape:connector-curvature="0"
       transform="matrix(11.993512,0,0,11.993512,-4099.6075,-4310.9397)"
       id="path1159"
       style="fill:#a80055" />
    <path
       d="m 309.054,442.386 c 0,-2.945 0.854,-3.999 1.865,-3.999 1.43,0 2.209,2.124 2.455,2.945 l 0,-2.85 c -0.246,0.191 -0.359,0.286 -0.629,0.286 -0.267,0 -0.667,-0.134 -0.855,-0.247 -0.19,-0.114 -0.57,-0.212 -0.952,-0.212 -1.255,0 -3.445,1.664 -3.445,4.076 0,2.848 1.942,4.07 3.445,4.07 0.382,0 0.798,-0.152 0.99,-0.269 0.189,-0.114 0.551,-0.267 0.817,-0.267 0.27,0 0.383,0.097 0.629,0.287 l 0,-2.867 c -0.21,1.108 -1.025,3.04 -2.455,3.04 -0.409,0 -0.972,-0.193 -1.229,-0.46 -0.077,-0.08 -0.636,-0.478 -0.636,-3.533"
       inkscape:connector-curvature="0"
       transform="matrix(11.993512,0,0,11.993512,-4099.6075,-4310.9397)"
       id="path1161"
       style="fill:#a80055" />
    <path
       d="m 309.054,442.386 c 0,-2.945 0.854,-3.999 1.865,-3.999 1.43,0 2.209,2.124 2.455,2.945 l 0,-2.85 c -0.246,0.191 -0.359,0.286 -0.629,0.286 -0.267,0 -0.667,-0.134 -0.855,-0.247 -0.19,-0.114 -0.57,-0.212 -0.952,-0.212 -1.255,0 -3.445,1.664 -3.445,4.076 0,2.848 1.942,4.07 3.445,4.07 0.382,0 0.798,-0.152 0.99,-0.269 0.189,-0.114 0.551,-0.267 0.817,-0.267 0.27,0 0.383,0.097 0.629,0.287 l 0,-2.867 c -0.21,1.108 -1.025,3.04 -2.455,3.04 -0.409,0 -0.972,-0.193 -1.229,-0.46 -0.077,-0.08 -0.636,-0.478 -0.636,-3.533"
       inkscape:connector-curvature="0"
       transform="matrix(11.993512,0,0,11.993512,-4099.6075,-4310.9397)"
       id="path1163"
       style="fill:#a80055" />
    <path
       d="m 325.599,444.697 c -0.018,0.63 -0.498,1.471 -1.485,1.451 -0.99,-0.021 -2.189,-0.764 -2.646,-2.771 l 0,2.716 c 0.188,-0.174 0.514,-0.479 1.028,-0.251 0.513,0.23 1.274,0.383 1.617,0.383 0.341,0 2.226,-0.362 2.304,-2.543 0.017,-1.091 -0.763,-1.644 -1.236,-1.816 -0.554,-0.209 -1.335,-0.457 -1.792,-0.613 -0.456,-0.149 -1.199,-0.628 -1.18,-1.509 0.019,-0.878 0.553,-1.355 1.276,-1.355 0.723,0 1.695,0.571 2.188,2.599 l 0,-2.696 c -0.283,0.25 -0.512,0.363 -0.685,0.363 -0.151,0 -0.596,-0.175 -0.819,-0.242 -0.247,-0.076 -0.489,-0.107 -0.8,-0.103 -0.542,0.009 -1.816,0.67 -1.902,2.448 -0.063,1.301 0.894,1.797 1.332,1.949 0.38,0.135 1.487,0.537 1.81,0.671 0.324,0.132 1.028,0.588 0.99,1.319"
       inkscape:connector-curvature="0"
       transform="matrix(11.993512,0,0,11.993512,-4099.6075,-4310.9397)"
       id="path1165"
       style="fill:#a80055" />
    <path
       d="m 325.599,444.697 c -0.018,0.63 -0.498,1.471 -1.485,1.451 -0.99,-0.021 -2.189,-0.764 -2.646,-2.771 l 0,2.716 c 0.188,-0.174 0.514,-0.479 1.028,-0.251 0.513,0.23 1.274,0.383 1.617,0.383 0.341,0 2.226,-0.362 2.304,-2.543 0.017,-1.091 -0.763,-1.644 -1.236,-1.816 -0.554,-0.209 -1.335,-0.457 -1.792,-0.613 -0.456,-0.149 -1.199,-0.628 -1.18,-1.509 0.019,-0.878 0.553,-1.355 1.276,-1.355 0.723,0 1.695,0.571 2.188,2.599 l 0,-2.696 c -0.283,0.25 -0.512,0.363 -0.685,0.363 -0.151,0 -0.596,-0.175 -0.819,-0.242 -0.247,-0.076 -0.489,-0.107 -0.8,-0.103 -0.542,0.009 -1.816,0.67 -1.902,2.448 -0.063,1.301 0.894,1.797 1.332,1.949 0.38,0.135 1.487,0.537 1.81,0.671 0.324,0.132 1.028,0.588 0.99,1.319"
       inkscape:connector-curvature="0"
       transform="matrix(11.993512,0,0,11.993512,-4099.6075,-4310.9397)"
       id="path1167"
       style="fill:#a80055" />
    <path
       d="m 343.949,438.417 2.293,0 0,7.605 -2.293,0 0,-7.605 z m 3.917,0 c 0.879,0 1.602,0.697 1.602,1.579 0,0.897 -0.723,1.623 -1.63,1.623 -0.865,0 -1.56,-0.697 -1.56,-1.595 0,-0.881 0.71,-1.607 1.588,-1.607"
       inkscape:connector-curvature="0"
       transform="matrix(11.993512,0,0,11.993512,-4099.6075,-4310.9397)"
       id="path1169"
       style="fill:#ff0076" />
    <path
       d="m 339.361,444.152 c 1.196,0 1.862,-0.83 1.862,-1.883 0,-1.065 -0.715,-1.857 -1.788,-1.857 -1.16,0 -1.825,0.867 -1.825,1.832 0,1.052 0.702,1.908 1.751,1.908 m 1.788,1.87 0,-0.793 c -0.703,0.695 -1.431,0.979 -2.429,0.979 -2.134,0 -3.441,-1.81 -3.441,-3.927 0,-2.068 1.406,-4.014 3.637,-4.014 1.32,0 2.195,0.867 2.195,0.867 l 0,-2.601 2.283,0 0,9.487 -2.245,0 0,0.002 z"
       inkscape:connector-curvature="0"
       transform="matrix(11.993512,0,0,11.993512,-4099.6075,-4310.9397)"
       id="path1171"
       style="fill:#ff0076" />
    <path
       d="m 351.561,442.219 c 0,1.054 0.665,1.92 1.725,1.92 1.025,0 1.876,-0.755 1.876,-1.857 0,-1.115 -0.788,-1.883 -1.801,-1.883 -1.098,0 -1.8,0.817 -1.8,1.82 m 1.344,-3.951 c 0.924,0 1.504,0.311 2.183,0.93 l 0,-0.78 2.269,0 0,7.604 -2.305,0 0,-0.742 c 0,0 -0.826,0.929 -2.27,0.929 -2.108,0 -3.553,-1.512 -3.553,-3.951 0,-2.12 1.567,-3.99 3.676,-3.99"
       inkscape:connector-curvature="0"
       transform="matrix(11.993512,0,0,11.993512,-4099.6075,-4310.9397)"
       id="path1173"
       style="fill:#ff0076" />
    <path
       d="m 369.343,440.82 0,5.227 -2.305,0 0,-4.458 c 0,-0.854 -0.298,-1.202 -1.037,-1.202 -0.74,0 -1.232,0.57 -1.232,1.486 l 0,4.15 -2.332,0 0,-4.46 c 0,-0.829 -0.27,-1.177 -0.986,-1.177 -0.739,0 -1.232,0.533 -1.232,1.475 l 0,4.162 -2.306,0 0,-7.606 2.256,0 0,0.991 c 0,0 0.852,-1.139 2.134,-1.139 0.999,0 1.764,0.508 2.134,1.213 0.604,-0.631 1.099,-1.213 2.478,-1.213 1.504,0 2.428,1.113 2.428,2.551"
       inkscape:connector-curvature="0"
       transform="matrix(11.993512,0,0,11.993512,-4099.6075,-4310.9397)"
       id="path1175"
       style="fill:#ff0076" />
    <path
       d="m 371.985,442.219 c 0,1.054 0.665,1.92 1.726,1.92 1.023,0 1.873,-0.755 1.873,-1.857 0,-1.115 -0.789,-1.883 -1.799,-1.883 -1.1,0 -1.8,0.817 -1.8,1.82 m 1.343,-3.951 c 0.925,0 1.504,0.311 2.183,0.93 l 0,-0.78 2.27,0 0,7.604 -2.307,0 0,-0.742 c 0,0 -0.825,0.929 -2.269,0.929 -2.109,0 -3.552,-1.512 -3.552,-3.951 0,-2.12 1.565,-3.99 3.675,-3.99"
       inkscape:connector-curvature="0"
       transform="matrix(11.993512,0,0,11.993512,-4099.6075,-4310.9397)"
       id="path1177"
       style="fill:#ff0076" />
  </g>
</svg>

<?xml version="1.0" encoding="UTF-8" standalone="no"?>
<!-- Created with Inkscape (http://www.inkscape.org/) -->
<svg
   xmlns:dc="http://purl.org/dc/elements/1.1/"
   xmlns:cc="http://web.resource.org/cc/"
   xmlns:rdf="http://www.w3.org/1999/02/22-rdf-syntax-ns#"
   xmlns:svg="http://www.w3.org/2000/svg"
   xmlns="http://www.w3.org/2000/svg"
   xmlns:xlink="http://www.w3.org/1999/xlink"
   xmlns:sodipodi="http://sodipodi.sourceforge.net/DTD/sodipodi-0.dtd"
   xmlns:inkscape="http://www.inkscape.org/namespaces/inkscape"
   width="843"
   height="119"
   id="svg2"
   sodipodi:version="0.32"
   inkscape:version="0.45.1"
   version="1.0">
  <g
     inkscape:label="Layer 1"
     inkscape:groupmode="layer"
     id="layer1"
     transform="translate(411.68655,-924.62412)">
    <path
       style="fill:#a80055"
       id="path1149"
       d="M 330.802,444.635 C 329.206,444.626 327.906,443.575 327.217,442.311 C 327.914,441.054 329.219,440.035 330.802,440.035 C 332.417,440.035 333.708,441.048 334.389,442.311 C 333.708,443.576 332.429,444.642 330.802,444.635 M 330.802,438.428 C 328.654,438.428 326.911,440.181 326.911,442.339 C 326.911,444.496 328.653,446.245 330.802,446.245 C 332.952,446.245 334.695,444.496 334.695,442.339 C 334.695,440.181 332.953,438.428 330.802,438.428"
       clip-path="url(#SVGID_46_)"
       transform="matrix(11.993512,0,0,11.993512,-4099.6075,-4310.9397)" />
    <path
       style="fill:#a80055"
       id="path1151"
       d="M 330.802,444.635 C 329.206,444.626 327.906,443.575 327.217,442.311 C 327.914,441.054 329.219,440.035 330.802,440.035 C 332.417,440.035 333.708,441.048 334.389,442.311 C 333.708,443.576 332.429,444.642 330.802,444.635 M 330.802,438.428 C 328.654,438.428 326.911,440.181 326.911,442.339 C 326.911,444.496 328.653,446.245 330.802,446.245 C 332.952,446.245 334.695,444.496 334.695,442.339 C 334.695,440.181 332.953,438.428 330.802,438.428"
       clip-path="url(#SVGID_46_)"
       transform="matrix(11.993512,0,0,11.993512,-4099.6075,-4310.9397)" />
    <path
       style="fill:#a80055"
       id="path1153"
       d="M 330.802,444.411 C 331.943,444.411 332.865,443.481 332.865,442.339 C 332.865,441.194 331.942,440.267 330.802,440.267 C 329.666,440.267 328.739,441.195 328.739,442.339 C 328.74,443.481 329.667,444.411 330.802,444.411"
       clip-path="url(#SVGID_46_)"
       transform="matrix(11.993512,0,0,11.993512,-4099.6075,-4310.9397)" />
    <path
       style="fill:#a80055"
       id="path1155"
       d="M 330.802,444.411 C 331.943,444.411 332.865,443.481 332.865,442.339 C 332.865,441.194 331.942,440.267 330.802,440.267 C 329.666,440.267 328.739,441.195 328.739,442.339 C 328.74,443.481 329.667,444.411 330.802,444.411"
       clip-path="url(#SVGID_46_)"
       transform="matrix(11.993512,0,0,11.993512,-4099.6075,-4310.9397)" />
    <path
       style="fill:#a80055"
       id="path1157"
       d="M 314.053,438.446 L 317.595,438.446 C 319.096,438.446 320.145,439.372 320.145,440.318 C 320.145,441.027 319.877,441.695 318.393,442.021 C 318.965,442.097 320.524,442.516 320.524,444.007 C 320.524,445.5 318.887,446.225 317.765,446.225 L 314.053,446.225 L 314.053,446.15 L 317.728,446.15 C 318.603,446.15 319.157,445.787 319.157,444.122 C 319.157,442.459 318.549,442.078 317.785,442.059 L 316.643,442.059 L 316.643,441.982 L 317.851,441.982 C 318.347,441.982 318.871,441.907 318.871,440.299 C 318.871,438.695 318.241,438.523 317.574,438.523 L 316.643,438.523 L 316.643,446.151 L 315.233,446.151 L 315.233,438.523 L 314.053,438.523 L 314.053,438.446 L 314.053,438.446 z "
       clip-path="url(#SVGID_46_)"
       transform="matrix(11.993512,0,0,11.993512,-4099.6075,-4310.9397)" />
    <path
       style="fill:#a80055"
       id="path1159"
       d="M 314.053,438.446 L 317.595,438.446 C 319.096,438.446 320.145,439.372 320.145,440.318 C 320.145,441.027 319.877,441.695 318.393,442.021 C 318.965,442.097 320.524,442.516 320.524,444.007 C 320.524,445.5 318.887,446.225 317.765,446.225 L 314.053,446.225 L 314.053,446.15 L 317.728,446.15 C 318.603,446.15 319.157,445.787 319.157,444.122 C 319.157,442.459 318.549,442.078 317.785,442.059 L 316.643,442.059 L 316.643,441.982 L 317.851,441.982 C 318.347,441.982 318.871,441.907 318.871,440.299 C 318.871,438.695 318.241,438.523 317.574,438.523 L 316.643,438.523 L 316.643,446.151 L 315.233,446.151 L 315.233,438.523 L 314.053,438.523 L 314.053,438.446 L 314.053,438.446 z "
       clip-path="url(#SVGID_46_)"
       transform="matrix(11.993512,0,0,11.993512,-4099.6075,-4310.9397)" />
    <path
       style="fill:#a80055"
       id="path1161"
       d="M 309.054,442.386 C 309.054,439.441 309.908,438.387 310.919,438.387 C 312.349,438.387 313.128,440.511 313.374,441.332 L 313.374,438.482 C 313.128,438.673 313.015,438.768 312.745,438.768 C 312.478,438.768 312.078,438.634 311.89,438.521 C 311.7,438.407 311.32,438.309 310.938,438.309 C 309.683,438.309 307.493,439.973 307.493,442.385 C 307.493,445.233 309.435,446.455 310.938,446.455 C 311.32,446.455 311.736,446.303 311.928,446.186 C 312.117,446.072 312.479,445.919 312.745,445.919 C 313.015,445.919 313.128,446.016 313.374,446.206 L 313.374,443.339 C 313.164,444.447 312.349,446.379 310.919,446.379 C 310.51,446.379 309.947,446.186 309.69,445.919 C 309.613,445.839 309.054,445.441 309.054,442.386"
       clip-path="url(#SVGID_46_)"
       transform="matrix(11.993512,0,0,11.993512,-4099.6075,-4310.9397)" />
    <path
       style="fill:#a80055"
       id="path1163"
       d="M 309.054,442.386 C 309.054,439.441 309.908,438.387 310.919,438.387 C 312.349,438.387 313.128,440.511 313.374,441.332 L 313.374,438.482 C 313.128,438.673 313.015,438.768 312.745,438.768 C 312.478,438.768 312.078,438.634 311.89,438.521 C 311.7,438.407 311.32,438.309 310.938,438.309 C 309.683,438.309 307.493,439.973 307.493,442.385 C 307.493,445.233 309.435,446.455 310.938,446.455 C 311.32,446.455 311.736,446.303 311.928,446.186 C 312.117,446.072 312.479,445.919 312.745,445.919 C 313.015,445.919 313.128,446.016 313.374,446.206 L 313.374,443.339 C 313.164,444.447 312.349,446.379 310.919,446.379 C 310.51,446.379 309.947,446.186 309.69,445.919 C 309.613,445.839 309.054,445.441 309.054,442.386"
       clip-path="url(#SVGID_46_)"
       transform="matrix(11.993512,0,0,11.993512,-4099.6075,-4310.9397)" />
    <path
       style="fill:#a80055"
       id="path1165"
       d="M 325.599,444.697 C 325.581,445.327 325.101,446.168 324.114,446.148 C 323.124,446.127 321.925,445.384 321.468,443.377 L 321.468,446.093 C 321.656,445.919 321.982,445.614 322.496,445.842 C 323.009,446.072 323.77,446.225 324.113,446.225 C 324.454,446.225 326.339,445.863 326.417,443.682 C 326.434,442.591 325.654,442.038 325.181,441.866 C 324.627,441.657 323.846,441.409 323.389,441.253 C 322.933,441.104 322.19,440.625 322.209,439.744 C 322.228,438.866 322.762,438.389 323.485,438.389 C 324.208,438.389 325.18,438.96 325.673,440.988 L 325.673,438.292 C 325.39,438.542 325.161,438.655 324.988,438.655 C 324.837,438.655 324.392,438.48 324.169,438.413 C 323.922,438.337 323.68,438.306 323.369,438.31 C 322.827,438.319 321.553,438.98 321.467,440.758 C 321.404,442.059 322.361,442.555 322.799,442.707 C 323.179,442.842 324.286,443.244 324.609,443.378 C 324.933,443.51 325.637,443.966 325.599,444.697"
       clip-path="url(#SVGID_46_)"
       transform="matrix(11.993512,0,0,11.993512,-4099.6075,-4310.9397)" />
    <path
       style="fill:#a80055"
       id="path1167"
       d="M 325.599,444.697 C 325.581,445.327 325.101,446.168 324.114,446.148 C 323.124,446.127 321.925,445.384 321.468,443.377 L 321.468,446.093 C 321.656,445.919 321.982,445.614 322.496,445.842 C 323.009,446.072 323.77,446.225 324.113,446.225 C 324.454,446.225 326.339,445.863 326.417,443.682 C 326.434,442.591 325.654,442.038 325.181,441.866 C 324.627,441.657 323.846,441.409 323.389,441.253 C 322.933,441.104 322.19,440.625 322.209,439.744 C 322.228,438.866 322.762,438.389 323.485,438.389 C 324.208,438.389 325.18,438.96 325.673,440.988 L 325.673,438.292 C 325.39,438.542 325.161,438.655 324.988,438.655 C 324.837,438.655 324.392,438.48 324.169,438.413 C 323.922,438.337 323.68,438.306 323.369,438.31 C 322.827,438.319 321.553,438.98 321.467,440.758 C 321.404,442.059 322.361,442.555 322.799,442.707 C 323.179,442.842 324.286,443.244 324.609,443.378 C 324.933,443.51 325.637,443.966 325.599,444.697"
       clip-path="url(#SVGID_46_)"
       transform="matrix(11.993512,0,0,11.993512,-4099.6075,-4310.9397)" />
    <path
       style="fill:#ff0076"
       id="path1169"
       d="M 343.949,438.417 L 346.242,438.417 L 346.242,446.022 L 343.949,446.022 L 343.949,438.417 z M 347.866,438.417 C 348.745,438.417 349.468,439.114 349.468,439.996 C 349.468,440.893 348.745,441.619 347.838,441.619 C 346.973,441.619 346.278,440.922 346.278,440.024 C 346.278,439.143 346.988,438.417 347.866,438.417"
       clip-path="url(#SVGID_46_)"
       transform="matrix(11.993512,0,0,11.993512,-4099.6075,-4310.9397)" />
    <path
       style="fill:#ff0076"
       id="path1171"
       d="M 339.361,444.152 C 340.557,444.152 341.223,443.322 341.223,442.269 C 341.223,441.204 340.508,440.412 339.435,440.412 C 338.275,440.412 337.61,441.279 337.61,442.244 C 337.61,443.296 338.312,444.152 339.361,444.152 M 341.149,446.022 L 341.149,445.229 C 340.446,445.924 339.718,446.208 338.72,446.208 C 336.586,446.208 335.279,444.398 335.279,442.281 C 335.279,440.213 336.685,438.267 338.916,438.267 C 340.236,438.267 341.111,439.134 341.111,439.134 L 341.111,436.533 L 343.394,436.533 L 343.394,446.02 L 341.149,446.02 L 341.149,446.022 z "
       clip-path="url(#SVGID_46_)"
       transform="matrix(11.993512,0,0,11.993512,-4099.6075,-4310.9397)" />
    <path
       style="fill:#ff0076"
       id="path1173"
       d="M 351.561,442.219 C 351.561,443.273 352.226,444.139 353.286,444.139 C 354.311,444.139 355.162,443.384 355.162,442.282 C 355.162,441.167 354.374,440.399 353.361,440.399 C 352.263,440.399 351.561,441.216 351.561,442.219 M 352.905,438.268 C 353.829,438.268 354.409,438.579 355.088,439.198 L 355.088,438.418 L 357.357,438.418 L 357.357,446.022 L 355.052,446.022 L 355.052,445.28 C 355.052,445.28 354.226,446.209 352.782,446.209 C 350.674,446.209 349.229,444.697 349.229,442.258 C 349.229,440.138 350.796,438.268 352.905,438.268"
       clip-path="url(#SVGID_46_)"
       transform="matrix(11.993512,0,0,11.993512,-4099.6075,-4310.9397)" />
    <path
       style="fill:#ff0076"
       id="path1175"
       d="M 369.343,440.82 L 369.343,446.047 L 367.038,446.047 L 367.038,441.589 C 367.038,440.735 366.74,440.387 366.001,440.387 C 365.261,440.387 364.769,440.957 364.769,441.873 L 364.769,446.023 L 362.437,446.023 L 362.437,441.563 C 362.437,440.734 362.167,440.386 361.451,440.386 C 360.712,440.386 360.219,440.919 360.219,441.861 L 360.219,446.023 L 357.913,446.023 L 357.913,438.417 L 360.169,438.417 L 360.169,439.408 C 360.169,439.408 361.021,438.269 362.303,438.269 C 363.302,438.269 364.067,438.777 364.437,439.482 C 365.041,438.851 365.536,438.269 366.915,438.269 C 368.419,438.269 369.343,439.382 369.343,440.82"
       clip-path="url(#SVGID_46_)"
       transform="matrix(11.993512,0,0,11.993512,-4099.6075,-4310.9397)" />
    <path
       style="fill:#ff0076"
       id="path1177"
       d="M 371.985,442.219 C 371.985,443.273 372.65,444.139 373.711,444.139 C 374.734,444.139 375.584,443.384 375.584,442.282 C 375.584,441.167 374.795,440.399 373.785,440.399 C 372.685,440.399 371.985,441.216 371.985,442.219 M 373.328,438.268 C 374.253,438.268 374.832,438.579 375.511,439.198 L 375.511,438.418 L 377.781,438.418 L 377.781,446.022 L 375.474,446.022 L 375.474,445.28 C 375.474,445.28 374.649,446.209 373.205,446.209 C 371.096,446.209 369.653,444.697 369.653,442.258 C 369.653,440.138 371.218,438.268 373.328,438.268"
       clip-path="url(#SVGID_46_)"
       transform="matrix(11.993512,0,0,11.993512,-4099.6075,-4310.9397)" />
  </g>
</svg>
